;FLAVOR:UltiGCode
;TIME:14224
;MATERIAL:41045
;MATERIAL2:0
;NOZZLE_DIAMETER:0.000000
;NOZZLE_DIAMETER2:0.000000

;Layer count: 32
;LAYER:0
M107
G0 F9000 X-0.080 Y70.715 Z0.300
;TYPE:SKIRT
G1 F1800 X222.735 Y70.715 E33.42225
G1 X222.735 Y199.774 E52.78110
G1 X-0.080 Y199.774 E86.20335
G1 X-0.080 Y70.715 E105.56220
G0 F9000 X0.420 Y71.215
G1 F1800 X222.235 Y71.215 E138.83445
G1 X222.235 Y199.274 E158.04330
G1 X0.420 Y199.274 E191.31555
G1 X0.420 Y71.215 E210.52440
G0 F9000 X0.920 Y71.715
G1 F1800 X221.735 Y71.715 E243.64665
G1 X221.735 Y198.774 E262.70550
G1 X0.920 Y198.774 E295.82775
G1 X0.920 Y71.715 E314.88660
G0 F9000 X1.420 Y72.215
G1 F1800 X221.235 Y72.215 E347.85885
G1 X221.235 Y198.274 E366.76770
G1 X1.420 Y198.274 E399.73995
G1 X1.420 Y72.215 E418.64880
G0 F9000 X1.920 Y72.715
G1 F1800 X220.735 Y72.715 E451.47105
G1 X220.735 Y197.774 E470.22990
G1 X1.920 Y197.774 E503.05215
G1 X1.920 Y72.715 E521.81100
G0 F9000 X2.420 Y73.215
G1 F1800 X220.235 Y73.215 E554.48325
G1 X220.235 Y197.274 E573.09210
G1 X2.420 Y197.274 E605.76435
G1 X2.420 Y73.215 E624.37320
G0 F9000 X2.920 Y73.715
G1 F1800 X219.735 Y73.715 E656.89545
G1 X219.735 Y196.774 E675.35430
G1 X2.920 Y196.774 E707.87655
G1 X2.920 Y73.715 E726.33540
G0 F9000 X3.420 Y74.215
G1 F1800 X219.235 Y74.215 E758.70765
G1 X219.235 Y196.274 E777.01650
G1 X3.420 Y196.274 E809.38875
G1 X3.420 Y74.215 E827.69760
G0 F9000 X3.920 Y74.715
G1 F1800 X218.735 Y74.715 E859.91985
G1 X218.735 Y195.774 E878.07870
G1 X3.920 Y195.774 E910.30095
G1 X3.920 Y74.715 E928.45980
G0 F9000 X4.420 Y75.215
G1 F1800 X218.235 Y75.215 E960.53205
G1 X218.235 Y195.274 E978.54090
G1 X4.420 Y195.274 E1010.61315
G1 X4.420 Y75.215 E1028.62200
G0 F9000 X4.920 Y75.715
G1 F1800 X217.735 Y75.715 E1060.54425
G1 X217.735 Y194.774 E1078.40310
G1 X4.920 Y194.774 E1110.32535
G1 X4.920 Y75.715 E1128.18420
G0 F9000 X5.420 Y76.215
G1 F1800 X217.235 Y76.215 E1159.95645
G1 X217.235 Y194.274 E1177.66530
G1 X5.420 Y194.274 E1209.43755
G1 X5.420 Y76.215 E1227.14640
G0 F9000 X5.920 Y76.715
G1 F1800 X216.735 Y76.715 E1258.76865
G1 X216.735 Y193.774 E1276.32750
G1 X5.920 Y193.774 E1307.94975
G1 X5.920 Y76.715 E1325.50860
G0 F9000 X6.420 Y77.215
G1 F1800 X216.235 Y77.215 E1356.98085
G1 X216.235 Y193.274 E1374.38970
G1 X6.420 Y193.274 E1405.86195
G1 X6.420 Y77.215 E1423.27080
G0 F9000 X6.920 Y77.715
G1 F1800 X215.735 Y77.715 E1454.59305
G1 X215.735 Y192.774 E1471.85190
G1 X6.920 Y192.774 E1503.17415
G1 X6.920 Y77.715 E1520.43300
G0 F9000 X7.420 Y78.215
G1 F1800 X215.235 Y78.215 E1551.60525
G1 X215.235 Y192.274 E1568.71410
G1 X7.420 Y192.274 E1599.88635
G1 X7.420 Y78.215 E1616.99520
G0 F9000 X7.920 Y78.715
G1 F1800 X214.735 Y78.715 E1648.01745
G1 X214.735 Y191.774 E1664.97630
G1 X7.920 Y191.774 E1695.99855
G1 X7.920 Y78.715 E1712.95740
G0 F9000 X8.420 Y79.215
G1 F1800 X214.235 Y79.215 E1743.82965
G1 X214.235 Y191.274 E1760.63850
G1 X8.420 Y191.274 E1791.51075
G1 X8.420 Y79.215 E1808.31960
G0 F9000 X8.920 Y79.715
G1 F1800 X213.735 Y79.715 E1839.04185
G1 X213.735 Y190.774 E1855.70070
G1 X8.920 Y190.774 E1886.42295
G1 X8.920 Y79.715 E1903.08180
G0 F9000 X9.420 Y80.215
G1 F1800 X213.235 Y80.215 E1933.65405
G1 X213.235 Y190.274 E1950.16290
G1 X9.420 Y190.274 E1980.73515
G1 X9.420 Y80.215 E1997.24400
G0 F9000 X10.420 Y81.215
;TYPE:WALL-INNER
G1 F1800 X212.235 Y81.215 E2027.51625
G1 X212.235 Y189.274 E2043.72510
G1 X10.420 Y189.274 E2073.99735
G1 X10.420 Y81.215 E2090.20620
G0 F9000 X9.920 Y80.715
;TYPE:WALL-OUTER
G1 F1800 X212.735 Y80.715 E2120.62845
G1 X212.735 Y189.774 E2136.98730
G1 X9.920 Y189.774 E2167.40955
G1 X9.920 Y80.715 E2183.76840
G0 F9000 X10.594 Y81.658
;TYPE:SKIN
G1 F1800 X118.034 Y189.098 E2206.55987
G0 F9000 X117.327 Y189.098
G1 F1800 X10.594 Y82.365 E2229.20135
G0 F9000 X10.594 Y83.073
G1 F1800 X116.620 Y189.098 E2251.69276
G0 F9000 X115.913 Y189.098
G1 F1800 X10.594 Y83.780 E2274.03419
G0 F9000 X10.594 Y84.487
G1 F1800 X115.206 Y189.098 E2296.22564
G0 F9000 X114.498 Y189.098
G1 F1800 X10.594 Y85.194 E2318.26700
G0 F9000 X10.594 Y85.901
G1 F1800 X113.791 Y189.098 E2340.15839
G0 F9000 X113.084 Y189.098
G1 F1800 X10.594 Y86.608 E2361.89981
G0 F9000 X10.594 Y87.315
G1 F1800 X112.377 Y189.098 E2383.49124
G0 F9000 X111.670 Y189.098
G1 F1800 X10.594 Y88.022 E2404.93270
G0 F9000 X10.594 Y88.729
G1 F1800 X110.962 Y189.098 E2426.22407
G0 F9000 X110.255 Y189.098
G1 F1800 X10.594 Y89.436 E2447.36547
G0 F9000 X10.594 Y90.144
G1 F1800 X109.548 Y189.098 E2468.35678
G0 F9000 X108.841 Y189.098
G1 F1800 X10.594 Y90.851 E2489.19812
G0 F9000 X10.594 Y91.558
G1 F1800 X108.134 Y189.098 E2509.88948
G0 F9000 X107.427 Y189.098
G1 F1800 X10.594 Y92.265 E2530.43086
G0 F9000 X10.594 Y92.972
G1 F1800 X106.720 Y189.098 E2550.82226
G0 F9000 X106.012 Y189.098
G1 F1800 X10.594 Y93.679 E2571.06358
G0 F9000 X10.594 Y94.386
G1 F1800 X105.305 Y189.098 E2591.15493
G0 F9000 X104.598 Y189.098
G1 F1800 X10.594 Y95.093 E2611.09629
G0 F9000 X10.594 Y95.800
G1 F1800 X103.891 Y189.098 E2630.88768
G0 F9000 X103.184 Y189.098
G1 F1800 X10.594 Y96.508 E2650.52899
G0 F9000 X10.594 Y97.215
G1 F1800 X102.477 Y189.098 E2670.02031
G0 F9000 X101.770 Y189.098
G1 F1800 X10.594 Y97.922 E2689.36166
G0 F9000 X10.594 Y98.629
G1 F1800 X101.063 Y189.098 E2708.55304
G0 F9000 X100.356 Y189.098
G1 F1800 X10.594 Y99.336 E2727.59443
G0 F9000 X11.032 Y81.390
G1 F1800 X118.741 Y189.098 E2750.44286
G0 F9000 X119.448 Y189.098
G1 F1800 X11.740 Y81.390 E2773.29117
G0 F9000 X12.447 Y81.390
G1 F1800 X120.155 Y189.098 E2796.13949
G0 F9000 X120.862 Y189.098
G1 F1800 X13.154 Y81.390 E2818.98781
G0 F9000 X13.861 Y81.390
G1 F1800 X121.570 Y189.098 E2841.83623
G0 F9000 X122.277 Y189.098
G1 F1800 X14.568 Y81.390 E2864.68465
G0 F9000 X15.275 Y81.390
G1 F1800 X122.984 Y189.098 E2887.53308
G0 F9000 X123.691 Y189.098
G1 F1800 X15.982 Y81.390 E2910.38150
G0 F9000 X16.689 Y81.390
G1 F1800 X124.398 Y189.098 E2933.22992
G0 F9000 X125.105 Y189.098
G1 F1800 X17.396 Y81.390 E2956.07835
G0 F9000 X18.104 Y81.390
G1 F1800 X125.812 Y189.098 E2978.92666
G0 F9000 X126.519 Y189.098
G1 F1800 X18.811 Y81.390 E3001.77498
G0 F9000 X19.518 Y81.390
G1 F1800 X127.226 Y189.098 E3024.62330
G0 F9000 X127.934 Y189.098
G1 F1800 X20.225 Y81.390 E3047.47172
G0 F9000 X20.932 Y81.390
G1 F1800 X128.641 Y189.098 E3070.32014
G0 F9000 X129.348 Y189.098
G1 F1800 X21.639 Y81.390 E3093.16857
G0 F9000 X22.346 Y81.390
G1 F1800 X130.055 Y189.098 E3116.01699
G0 F9000 X130.762 Y189.098
G1 F1800 X23.053 Y81.390 E3138.86541
G0 F9000 X23.760 Y81.390
G1 F1800 X131.469 Y189.098 E3161.71384
G0 F9000 X132.176 Y189.098
G1 F1800 X24.468 Y81.390 E3184.56215
G0 F9000 X25.175 Y81.390
G1 F1800 X132.883 Y189.098 E3207.41047
G0 F9000 X133.590 Y189.098
G1 F1800 X25.882 Y81.390 E3230.25879
G0 F9000 X26.589 Y81.390
G1 F1800 X134.297 Y189.098 E3253.10711
G0 F9000 X135.005 Y189.098
G1 F1800 X27.296 Y81.390 E3275.95553
G0 F9000 X28.003 Y81.390
G1 F1800 X135.712 Y189.098 E3298.80395
G0 F9000 X136.419 Y189.098
G1 F1800 X28.710 Y81.390 E3321.65238
G0 F9000 X29.417 Y81.390
G1 F1800 X137.126 Y189.098 E3344.50080
G0 F9000 X137.833 Y189.098
G1 F1800 X30.124 Y81.390 E3367.34922
G0 F9000 X30.831 Y81.390
G1 F1800 X138.540 Y189.098 E3390.19764
G0 F9000 X139.247 Y189.098
G1 F1800 X31.539 Y81.390 E3413.04596
G0 F9000 X32.246 Y81.390
G1 F1800 X139.954 Y189.098 E3435.89428
G0 F9000 X140.661 Y189.098
G1 F1800 X32.953 Y81.390 E3458.74260
G0 F9000 X33.660 Y81.390
G1 F1800 X141.369 Y189.098 E3481.59102
G0 F9000 X142.076 Y189.098
G1 F1800 X34.367 Y81.390 E3504.43944
G0 F9000 X35.074 Y81.390
G1 F1800 X142.783 Y189.098 E3527.28787
G0 F9000 X143.490 Y189.098
G1 F1800 X35.781 Y81.390 E3550.13629
G0 F9000 X36.488 Y81.390
G1 F1800 X144.197 Y189.098 E3572.98471
G0 F9000 X144.904 Y189.098
G1 F1800 X37.195 Y81.390 E3595.83314
G0 F9000 X37.903 Y81.390
G1 F1800 X145.611 Y189.098 E3618.68145
G0 F9000 X146.318 Y189.098
G1 F1800 X38.610 Y81.390 E3641.52977
G0 F9000 X39.317 Y81.390
G1 F1800 X147.025 Y189.098 E3664.37809
G0 F9000 X147.732 Y189.098
G1 F1800 X40.024 Y81.390 E3687.22640
G0 F9000 X40.731 Y81.390
G1 F1800 X148.440 Y189.098 E3710.07483
G0 F9000 X149.147 Y189.098
G1 F1800 X41.438 Y81.390 E3732.92325
G0 F9000 X42.145 Y81.390
G1 F1800 X149.854 Y189.098 E3755.77167
G0 F9000 X150.561 Y189.098
G1 F1800 X42.852 Y81.390 E3778.62010
G0 F9000 X43.559 Y81.390
G1 F1800 X151.268 Y189.098 E3801.46852
G0 F9000 X151.975 Y189.098
G1 F1800 X44.267 Y81.390 E3824.31684
G0 F9000 X44.974 Y81.390
G1 F1800 X152.682 Y189.098 E3847.16515
G0 F9000 X153.389 Y189.098
G1 F1800 X45.681 Y81.390 E3870.01347
G0 F9000 X46.388 Y81.390
G1 F1800 X154.096 Y189.098 E3892.86179
G0 F9000 X154.804 Y189.098
G1 F1800 X47.095 Y81.390 E3915.71021
G0 F9000 X47.802 Y81.390
G1 F1800 X155.511 Y189.098 E3938.55864
G0 F9000 X156.218 Y189.098
G1 F1800 X48.509 Y81.390 E3961.40706
G0 F9000 X49.216 Y81.390
G1 F1800 X156.925 Y189.098 E3984.25548
G0 F9000 X157.632 Y189.098
G1 F1800 X49.923 Y81.390 E4007.10391
G0 F9000 X50.630 Y81.390
G1 F1800 X158.339 Y189.098 E4029.95233
G0 F9000 X159.046 Y189.098
G1 F1800 X51.338 Y81.390 E4052.80065
G0 F9000 X52.045 Y81.390
G1 F1800 X159.753 Y189.098 E4075.64896
G0 F9000 X160.460 Y189.098
G1 F1800 X52.752 Y81.390 E4098.49728
G0 F9000 X53.459 Y81.390
G1 F1800 X161.168 Y189.098 E4121.34570
G0 F9000 X161.875 Y189.098
G1 F1800 X54.166 Y81.390 E4144.19413
G0 F9000 X54.873 Y81.390
G1 F1800 X162.582 Y189.098 E4167.04255
G0 F9000 X163.289 Y189.098
G1 F1800 X55.580 Y81.390 E4189.89097
G0 F9000 X56.287 Y81.390
G1 F1800 X163.996 Y189.098 E4212.73940
G0 F9000 X164.703 Y189.098
G1 F1800 X56.994 Y81.390 E4235.58782
G0 F9000 X57.702 Y81.390
G1 F1800 X165.410 Y189.098 E4258.43614
G0 F9000 X166.117 Y189.098
G1 F1800 X58.409 Y81.390 E4281.28445
G0 F9000 X59.116 Y81.390
G1 F1800 X166.824 Y189.098 E4304.13277
G0 F9000 X167.531 Y189.098
G1 F1800 X59.823 Y81.390 E4326.98109
G0 F9000 X60.530 Y81.390
G1 F1800 X168.239 Y189.098 E4349.82951
G0 F9000 X168.946 Y189.098
G1 F1800 X61.237 Y81.390 E4372.67793
G0 F9000 X61.944 Y81.390
G1 F1800 X169.653 Y189.098 E4395.52636
G0 F9000 X170.360 Y189.098
G1 F1800 X62.651 Y81.390 E4418.37478
G0 F9000 X63.358 Y81.390
G1 F1800 X171.067 Y189.098 E4441.22320
G0 F9000 X171.774 Y189.098
G1 F1800 X64.065 Y81.390 E4464.07163
G0 F9000 X64.773 Y81.390
G1 F1800 X172.481 Y189.098 E4486.91994
G0 F9000 X173.188 Y189.098
G1 F1800 X65.480 Y81.390 E4509.76826
G0 F9000 X66.187 Y81.390
G1 F1800 X173.895 Y189.098 E4532.61658
G0 F9000 X174.603 Y189.098
G1 F1800 X66.894 Y81.390 E4555.46500
G0 F9000 X67.601 Y81.390
G1 F1800 X175.310 Y189.098 E4578.31342
G0 F9000 X176.017 Y189.098
G1 F1800 X68.308 Y81.390 E4601.16185
G0 F9000 X69.015 Y81.390
G1 F1800 X176.724 Y189.098 E4624.01027
G0 F9000 X177.431 Y189.098
G1 F1800 X69.722 Y81.390 E4646.85869
G0 F9000 X70.429 Y81.390
G1 F1800 X178.138 Y189.098 E4669.70712
G0 F9000 X178.845 Y189.098
G1 F1800 X71.137 Y81.390 E4692.55544
G0 F9000 X71.844 Y81.390
G1 F1800 X179.552 Y189.098 E4715.40375
G0 F9000 X180.259 Y189.098
G1 F1800 X72.551 Y81.390 E4738.25207
G0 F9000 X73.258 Y81.390
G1 F1800 X180.967 Y189.098 E4761.10049
G0 F9000 X181.674 Y189.098
G1 F1800 X73.965 Y81.390 E4783.94892
G0 F9000 X74.672 Y81.390
G1 F1800 X182.381 Y189.098 E4806.79734
G0 F9000 X183.088 Y189.098
G1 F1800 X75.379 Y81.390 E4829.64576
G0 F9000 X76.086 Y81.390
G1 F1800 X183.795 Y189.098 E4852.49419
G0 F9000 X184.502 Y189.098
G1 F1800 X76.793 Y81.390 E4875.34261
G0 F9000 X77.501 Y81.390
G1 F1800 X185.209 Y189.098 E4898.19093
G0 F9000 X185.916 Y189.098
G1 F1800 X78.208 Y81.390 E4921.03924
G0 F9000 X78.915 Y81.390
G1 F1800 X186.623 Y189.098 E4943.88756
G0 F9000 X187.330 Y189.098
G1 F1800 X79.622 Y81.390 E4966.73588
G0 F9000 X80.329 Y81.390
G1 F1800 X188.038 Y189.098 E4989.58430
G0 F9000 X188.745 Y189.098
G1 F1800 X81.036 Y81.390 E5012.43272
G0 F9000 X81.743 Y81.390
G1 F1800 X189.452 Y189.098 E5035.28115
G0 F9000 X190.159 Y189.098
G1 F1800 X82.450 Y81.390 E5058.12957
G0 F9000 X83.157 Y81.390
G1 F1800 X190.866 Y189.098 E5080.97799
G0 F9000 X191.573 Y189.098
G1 F1800 X83.864 Y81.390 E5103.82642
G0 F9000 X84.572 Y81.390
G1 F1800 X192.280 Y189.098 E5126.67473
G0 F9000 X192.987 Y189.098
G1 F1800 X85.279 Y81.390 E5149.52305
G0 F9000 X85.986 Y81.390
G1 F1800 X193.694 Y189.098 E5172.37137
G0 F9000 X194.402 Y189.098
G1 F1800 X86.693 Y81.390 E5195.21979
G0 F9000 X87.400 Y81.390
G1 F1800 X195.109 Y189.098 E5218.06821
G0 F9000 X195.816 Y189.098
G1 F1800 X88.107 Y81.390 E5240.91664
G0 F9000 X88.814 Y81.390
G1 F1800 X196.523 Y189.098 E5263.76506
G0 F9000 X197.230 Y189.098
G1 F1800 X89.521 Y81.390 E5286.61348
G0 F9000 X90.228 Y81.390
G1 F1800 X197.937 Y189.098 E5309.46191
G0 F9000 X198.644 Y189.098
G1 F1800 X90.936 Y81.390 E5332.31022
G0 F9000 X91.643 Y81.390
G1 F1800 X199.351 Y189.098 E5355.15854
G0 F9000 X200.058 Y189.098
G1 F1800 X92.350 Y81.390 E5378.00686
G0 F9000 X93.057 Y81.390
G1 F1800 X200.765 Y189.098 E5400.85518
G0 F9000 X201.473 Y189.098
G1 F1800 X93.764 Y81.390 E5423.70360
G0 F9000 X94.471 Y81.390
G1 F1800 X202.180 Y189.098 E5446.55202
G0 F9000 X202.887 Y189.098
G1 F1800 X95.178 Y81.390 E5469.40045
G0 F9000 X95.885 Y81.390
G1 F1800 X203.594 Y189.098 E5492.24887
G0 F9000 X204.301 Y189.098
G1 F1800 X96.592 Y81.390 E5515.09729
G0 F9000 X97.300 Y81.390
G1 F1800 X205.008 Y189.098 E5537.94561
G0 F9000 X205.715 Y189.098
G1 F1800 X98.007 Y81.390 E5560.79393
G0 F9000 X98.714 Y81.390
G1 F1800 X206.422 Y189.098 E5583.64224
G0 F9000 X207.129 Y189.098
G1 F1800 X99.421 Y81.390 E5606.49056
G0 F9000 X100.128 Y81.390
G1 F1800 X207.837 Y189.098 E5629.33898
G0 F9000 X208.544 Y189.098
G1 F1800 X100.835 Y81.390 E5652.18741
G0 F9000 X101.542 Y81.390
G1 F1800 X209.251 Y189.098 E5675.03583
G0 F9000 X209.958 Y189.098
G1 F1800 X102.249 Y81.390 E5697.88425
G0 F9000 X102.956 Y81.390
G1 F1800 X210.665 Y189.098 E5720.73268
G0 F9000 X211.372 Y189.098
G1 F1800 X103.663 Y81.390 E5743.58110
G0 F9000 X104.371 Y81.390
G1 F1800 X212.059 Y189.078 E5766.42517
G0 F9000 X212.059 Y188.371
G1 F1800 X105.078 Y81.390 E5789.11927
G0 F9000 X105.785 Y81.390
G1 F1800 X212.059 Y187.664 E5811.66339
G0 F9000 X212.059 Y186.956
G1 F1800 X106.492 Y81.390 E5834.05743
G0 F9000 X107.199 Y81.390
G1 F1800 X212.059 Y186.249 E5856.30149
G0 F9000 X212.059 Y185.542
G1 F1800 X107.906 Y81.390 E5878.39557
G0 F9000 X108.613 Y81.390
G1 F1800 X212.059 Y184.835 E5900.33967
G0 F9000 X212.059 Y184.128
G1 F1800 X109.320 Y81.390 E5922.13380
G0 F9000 X110.027 Y81.390
G1 F1800 X212.059 Y183.421 E5943.77795
G0 F9000 X212.059 Y182.714
G1 F1800 X110.735 Y81.390 E5965.27202
G0 F9000 X111.442 Y81.390
G1 F1800 X212.059 Y182.007 E5986.61610
G0 F9000 X212.059 Y181.300
G1 F1800 X112.149 Y81.390 E6007.81022
G0 F9000 X112.856 Y81.390
G1 F1800 X212.059 Y180.592 E6028.85424
G0 F9000 X212.059 Y179.885
G1 F1800 X113.563 Y81.390 E6049.74830
G0 F9000 X114.270 Y81.390
G1 F1800 X212.059 Y179.178 E6070.49237
G0 F9000 X212.059 Y178.471
G1 F1800 X114.977 Y81.390 E6091.08647
G0 F9000 X115.684 Y81.390
G1 F1800 X212.059 Y177.764 E6111.53058
G0 F9000 X212.059 Y177.057
G1 F1800 X116.391 Y81.390 E6131.82473
G0 F9000 X117.099 Y81.390
G1 F1800 X212.059 Y176.350 E6151.96878
G0 F9000 X212.059 Y175.643
G1 F1800 X117.806 Y81.390 E6171.96286
G0 F9000 X118.513 Y81.390
G1 F1800 X212.059 Y174.936 E6191.80697
G0 F9000 X212.059 Y174.228
G1 F1800 X119.220 Y81.390 E6211.50099
G0 F9000 X119.927 Y81.390
G1 F1800 X212.059 Y173.521 E6231.04503
G0 F9000 X212.059 Y172.814
G1 F1800 X120.634 Y81.390 E6250.43909
G0 F9000 X121.341 Y81.390
G1 F1800 X212.059 Y172.107 E6269.68318
G0 F9000 X212.059 Y171.400
G1 F1800 X122.048 Y81.390 E6288.77729
G0 F9000 X122.755 Y81.390
G1 F1800 X212.059 Y170.693 E6307.72143
G0 F9000 X212.059 Y169.986
G1 F1800 X123.462 Y81.390 E6326.51558
G0 F9000 X124.170 Y81.390
G1 F1800 X212.059 Y169.279 E6345.15965
G0 F9000 X212.059 Y168.572
G1 F1800 X124.877 Y81.390 E6363.65375
G0 F9000 X125.584 Y81.390
G1 F1800 X212.059 Y167.865 E6381.99787
G0 F9000 X212.059 Y167.157
G1 F1800 X126.291 Y81.390 E6400.19190
G0 F9000 X126.998 Y81.390
G1 F1800 X212.059 Y166.450 E6418.23596
G0 F9000 X212.059 Y165.743
G1 F1800 X127.705 Y81.390 E6436.13004
G0 F9000 X128.412 Y81.390
G1 F1800 X212.059 Y165.036 E6453.87414
